src/icons/svg/sitemap.svg

<?xml version="1.0" standalone="no"?><!DOCTYPE svg PUBLIC "-//W3C//DTD SVG 1.1//EN" "http://www.w3.org/Graphics/SVG/1.1/DTD/svg11.dtd"><svg t="1584947167046" class="icon" viewBox="0 0 1024 1024" version="1.1" xmlns="http://www.w3.org/2000/svg" p-id="8076" xmlns:xlink="http://www.w3.org/1999/xlink" width="200" height="200"><defs><style type="text/css"></style></defs><path d="M1024 713.142857l0 182.857143q0 22.857143-16 38.857143t-38.857143 16l-182.857143 0q-22.857143 0-38.857143-16t-16-38.857143l0-182.857143q0-22.857143 16-38.857143t38.857143-16l54.857143 0 0-109.714286-292.571429 0 0 109.714286 54.857143 0q22.857143 0 38.857143 16t16 38.857143l0 182.857143q0 22.857143-16 38.857143t-38.857143 16l-182.857143 0q-22.857143 0-38.857143-16t-16-38.857143l0-182.857143q0-22.857143 16-38.857143t38.857143-16l54.857143 0 0-109.714286-292.571429 0 0 109.714286 54.857143 0q22.857143 0 38.857143 16t16 38.857143l0 182.857143q0 22.857143-16 38.857143t-38.857143 16l-182.857143 0q-22.857143 0-38.857143-16t-16-38.857143l0-182.857143q0-22.857143 16-38.857143t38.857143-16l54.857143 0 0-109.714286q0-29.714286 21.714286-51.428571t51.428571-21.714286l292.571429 0 0-109.714286-54.857143 0q-22.857143 0-38.857143-16t-16-38.857143l0-182.857143q0-22.857143 16-38.857143t38.857143-16l182.857143 0q22.857143 0 38.857143 16t16 38.857143l0 182.857143q0 22.857143-16 38.857143t-38.857143 16l-54.857143 0 0 109.714286 292.571429 0q29.714286 0 51.428571 21.714286t21.714286 51.428571l0 109.714286 54.857143 0q22.857143 0 38.857143 16t16 38.857143z" p-id="8077"></path></svg>

<svg class="icon" viewBox="0 0 1024 1024" xmlns="http://www.w3.org/2000/svg" width="200" height="200"><defs><style/></defs><path d="M1024 713.143V896q0 22.857-16 38.857t-38.857 16H786.286q-22.857 0-38.857-16t-16-38.857V713.143q0-22.857 16-38.857t38.857-16h54.857V548.57H548.57v109.715h54.858q22.857 0 38.857 16t16 38.857V896q0 22.857-16 38.857t-38.857 16H420.57q-22.857 0-38.857-16t-16-38.857V713.143q0-22.857 16-38.857t38.857-16h54.858V548.57H182.857v109.715h54.857q22.857 0 38.857 16t16 38.857V896q0 22.857-16 38.857t-38.857 16H54.857q-22.857 0-38.857-16T0 896V713.143q0-22.857 16-38.857t38.857-16h54.857V548.57q0-29.714 21.715-51.428t51.428-21.714H475.43V365.714h-54.86q-22.857 0-38.857-16t-16-38.857V128q0-22.857 16-38.857t38.857-16h182.86q22.857 0 38.857 16t16 38.857v182.857q0 22.857-16 38.857t-38.857 16h-54.86V475.43h292.572q29.714 0 51.428 21.714t21.715 51.428v109.715h54.857q22.857 0 38.857 16t16 38.857z"/></svg>
